src/resources/icons-social-media/src/social-media/foursquare.svg

<?xml version="1.0" encoding="UTF-8" standalone="no"?>
<svg
   xmlns:dc="http://purl.org/dc/elements/1.1/"
   xmlns:cc="http://creativecommons.org/ns#"
   xmlns:rdf="http://www.w3.org/1999/02/22-rdf-syntax-ns#"
   xmlns:svg="http://www.w3.org/2000/svg"
   xmlns="http://www.w3.org/2000/svg"
   xmlns:sodipodi="http://sodipodi.sourceforge.net/DTD/sodipodi-0.dtd"
   xmlns:inkscape="http://www.inkscape.org/namespaces/inkscape"
   inkscape:version="1.0 (4035a4fb49, 2020-05-01)"
   sodipodi:docname="foursquare.svg"
   id="svg55"
   version="1.1"
   viewBox="0 0 48 48"
   height="48px"
   width="48px">
  <metadata
     id="metadata61">
    <rdf:RDF>
      <cc:Work
         rdf:about="">
        <dc:format>image/svg+xml</dc:format>
        <dc:type
           rdf:resource="http://purl.org/dc/dcmitype/StillImage" />
      </cc:Work>
    </rdf:RDF>
  </metadata>
  <defs
     id="defs59" />
  <sodipodi:namedview
     inkscape:current-layer="svg55"
     inkscape:window-maximized="0"
     inkscape:window-y="145"
     inkscape:window-x="275"
     inkscape:cy="24"
     inkscape:cx="24"
     inkscape:zoom="18.541667"
     showgrid="false"
     id="namedview57"
     inkscape:window-height="480"
     inkscape:window-width="717"
     inkscape:pageshadow="2"
     inkscape:pageopacity="0"
     guidetolerance="10"
     gridtolerance="10"
     objecttolerance="10"
     borderopacity="1"
     bordercolor="#666666"
     pagecolor="#ffffff" />
  <title
     id="title50">EC/Icons/Social/2XL_48x48px/Icon-Foursquare/Simple</title>
  <g
     stroke-width="1"
     stroke="none"
     id="EC/Icons/Social/2XL_48x48px/Icon-Foursquare/Simple">
    <path
       d="m 33.970221,8.5113518 -1.079563,5.1161952 c -0.117465,0.557251 -0.630677,1.043981 -1.290721,1.043981 h -9.500711 c -1.044603,0 -1.903219,0.844863 -1.903219,1.879165 v 1.128328 c 0,1.031536 0.858616,1.877782 1.903219,1.877782 h 8.079939 c 0.734159,0 1.357844,0.689995 1.198427,1.469869 -0.162214,0.779874 -0.983073,4.781569 -1.072571,5.211606 -0.0909,0.427272 -0.552367,1.00388 -1.293517,1.00388 -0.741151,0 -6.625607,0.0028 -6.625607,0.0028 -1.335469,0.04148 -1.624938,0.0484 -2.410837,1.01356 -0.785899,0.965163 -7.842212,9.690351 -7.842212,9.690351 C 12.06153,38.0318 12,38.008293 12,37.918414 V 8.2583075 C 12,7.571078 12.581733,7 13.27394,7 h 19.51044 c 0.707589,0 1.364835,0.6554261 1.185841,1.5113518 M 35.054313,2 H 11.25116 C 7.9648419,2 7,4.4364886 7,5.9696065 V 43.269057 c 0,1.847992 0.9425334,2.367739 1.4723599,2.578113 0.5298265,0.211749 1.8906441,0.346499 2.8652461,-0.603622 0,0 11.296458,-12.997814 11.479109,-13.197188 0.182651,-0.200749 0.29001,-0.203499 0.395976,-0.203499 0.107359,0 4.847912,0.0028 7.201457,0.0028 1.932472,0 3.516375,-1.247119 3.930476,-3.198235 0,0 4.198178,-20.1340314 4.584393,-22.0136476 C 39.352879,4.5863629 37.855421,2 35.054313,2"
       id="Path" />
  </g>
</svg>

<?xml version="1.0" encoding="UTF-8"?>
<svg width="48px" height="48px" viewBox="0 0 48 48" version="1.1" xmlns="http://www.w3.org/2000/svg" xmlns:xlink="http://www.w3.org/1999/xlink">
    <title>EC/Icons/Social/2XL_48x48px/Icon-Foursquare/Simple</title>
    <g id="EC/Icons/Social/2XL_48x48px/Icon-Foursquare/Simple" stroke="none" stroke-width="1">
        <path d="M35.0543125,2 L11.2511604,2 C7.96484192,2 7,4.43648863 7,5.96960647 L7,43.2690574 C7,45.1170487 7.94253344,45.6367963 8.47235992,45.8471703 C9.00218641,46.0589193 10.3630039,46.1936687 11.3376058,45.2435481 C11.3376058,45.2435481 22.6340642,32.2457338 22.8167149,32.0463597 C22.9993657,31.8456107 23.1067252,31.8428607 23.2126905,31.8428607 C23.3200501,31.8428607 28.0606029,31.8456107 30.4141479,31.8456107 C32.3466203,31.8456107 33.9305227,30.5984915 34.3446239,28.6473756 C34.3446239,28.6473756 38.5428017,8.5133446 38.9290173,6.63372837 C39.3528785,4.58636293 37.8554215,2 35.0543125,2" id="Fill-1" fill="#000000"></path>
        <path d="M33.9702207,8.51135182 L32.8906579,13.6275474 C32.7731925,14.1847979 32.2599807,14.6715278 31.5999372,14.6715278 L22.0992256,14.6715278 C21.0546228,14.6715278 20.1960068,15.5163915 20.1960068,16.5506926 L20.1960068,17.6790211 C20.1960068,18.7105568 21.0546228,19.5568032 22.0992256,19.5568032 L30.1791655,19.5568032 C30.9133241,19.5568032 31.5370093,20.2467982 31.377592,21.0266723 C31.2153779,21.8065465 30.3945187,25.808241 30.3050212,26.238278 C30.2141254,26.6655495 29.7526543,27.2421585 29.0115037,27.2421585 C28.2703531,27.2421585 22.3858971,27.2449241 22.3858971,27.2449241 C21.0504276,27.2864067 20.7609594,27.2933205 19.9750601,28.2584839 C19.1891607,29.2236473 12.1328477,37.9488348 12.1328477,37.9488348 C12.0615295,38.0318001 12,38.0082933 12,37.9184142 L12,8.25830755 C12,7.57107804 12.5817333,7 13.27394,7 L32.7843797,7 C33.4919688,7 34.1492155,7.65542613 33.9702207,8.51135182" id="Path" fill="#FFFFFF" fill-rule="nonzero"></path>
    </g>
</svg>
